X: 836
T: Gidelim Göksu`ya
C: Lavtacı Hristo
O: Turkey
F: http://compmusic.upf.edu/node/140
N: kurdilihicazkar--sarki--aksak--gidelim_goksuya--lavtaci_hristo
N: makam= kurdilihicazkar
N: form= sarki
N: usul= aksak = 9/8
M: 9/8
L: 1/16
K: C _B _e _A 
Q: 1/4=168
%%MIDI tuningsystem comma53
G3A B2c2 d2_2/4e2 f2e2 f2 | g8gf g=af2 _3/4e2d2  | \
w:  ARANAĞME  |   | 
c2b=a g2a2 f2_3/4e2 gf_7/8e2 ed | 
w:   | 
d6 c2d2 {f}edd4z2  | c3d _3/4e2f2 g2f2 a2g2 f2 | \
w:   |   | 
e3dd3cc2 {e}dcc4z2  | 
w:   | 
B3d c2d2 B2c2 cBA2 AG | G6 dedc BAG4z2  | \
w:   |   | 
G3A B2c2 d2_2/4e2 f2e2 f2 | 
w:  ARANAĞME  | 
g8gf g=af2 _3/4e2d2  | c2b=a g2a2 f2_3/4e2 gf_7/8e2 ed | \
w:   |   | 
d6 c2d2 {f}edd4z2  | 
w:   | 
c3d _3/4e2f2 g2f2 a2g2 f2 | e3dd3cc2 {e}dcc4z2  | \
w:   |   | 
B3d c2d2 B2c2 cBA2 AG | 
w:   | 
G6 dedc BAG4z2  | G4 g2_7/8a2 g2^f2 _7/8e4 f2 | \
w:   |  *  Gi de lim   | 
g6 ^f2g2 {b}_7/8agg6  | 
w:  Gök  | 
g4 g2_7/8a2 g2^f2 e4 ed | d6 c2d2 {^f}edd6  | \
w:  *  su ya  bir   |  â  | 
d3c _1/4B2c2 d2_7/8e2 ^f2g2 _7/8a2 | 
w:  *  *  lem_ i  âb   | 
_1/4b3_7/8aa2 {b}agg4^f_7/8e dc_1/4B_7/8A  | \
w:  ey *  le *  ye *  lim   SAZ  | 
G4 g2_7/8a2 g2^f2 _7/8e4 f2 | g6 ^f2g2 {b}_7/8agg6  | 
w:  *  Gi de lim   |  Gök  | 
g4 g2_7/8a2 g2^f2 e4 ed | d6 c2d2 {^f}edd6  | \
w:  *  su ya  bir   |  â  | 
d3c _1/4B2c2 d2_7/8e2 ^f2g2 _7/8a2 | 
w:  *  *  lem_ i  âb   | 
_1/4b3_7/8aa2 {b}agg4g_2/4a gf_2/4ef  | \
w:  ey *  le *  ye *  lim   SAZ  | 
g2g4c'2 b2a2 g2f2 e2 | f2 {a}gffe ede8-e2  | 
w:  *  Ol  ka deh  |  kâr  *  *  *  gü *  ze *  li   | 
d2e6 e3d gfed c2 | d3cf2 edd4_2/4e2 f2g2  | \
w:  yâr   |  yâr  *  o la *  rak   | 
fedc B2c2 B2A2 G2A2 c2 | 
w:  pey  | 
B3AA2 AGG4ga gf_2/4ef  | g2g4c'2 b2a2 g2f2 e2 | \
w:  *  *  le ye *  lim   SAZ  |  *  Ol  ka deh  | 
f2 {a}gffe ede8-e2  | 
w:  kâr  *  *  *  gü *  ze *  li   | 
d2e6 e3d gfed c2 | d3cf2 edd4_2/4e2 f2g2  | \
w:  yâr   |  yâr  *  o la *  rak   | 
fedc B2c2 B2A2 G2A2 c2 | 
w:  pey  | 
B3AA2 AGG4b4=ac'  | b4 =a2b2 b4 a2g2 a2 | \
w:  *  *  le ye *  lim   SAZ  |  *  Bi ze  bu   | 
g3^f_7/8e2 f2g8z2  | 
w:  tâ *  li hi miz   | 
^f2g2 _7/8a2{b}ag g8 z2 | ^f8f2 g2gf _7/8ede2  | \
w:  ol *  ma *  dı  *  yâr   |  yâr   | 
g2a6 a2g2 g2a2 c'2 | 
w:  yâr   | 
_2/4b3_7/8aa2 agg4_b4=ac'  | b4 =a2b2 b4 a2g2 a2 | \
w:  ney *  le ye *  lim   SAZ  |  *  Bi ze  bu   | 
g3^f_7/8e2 f2g8z2  | 
w:  tâ *  li hi miz   | 
^f2g2 _7/8a2{b}ag g8 z2 | ^f8f2 g2gf _7/8ede2  | \
w:  ol *  ma *  dı  *  yâr   |  yâr   | 
g2a6 a2g2 g2a2 c'2 | 
w:  yâr   | 
_2/4b3_7/8aa2 agg4ga gf_2/4ef  | g2g4c'2 b2a2 g2f2 e2 | \
w:  ney *  le ye *  lim   SAZ  |  *  Ol  ka deh  | 
f2 {a}gffe ede8-e2  | 
w:  kâr  *  *  *  gü *  ze *  li   | 
d2e6 e3d gfed c2 | d3cf2 edd4_2/4e2 f2g2  | \
w:  yâr   |  yâr  *  o la *  rak   | 
fedc B2c2 B2A2 G2A2 c2 | 
w:  pey  | 
B3AA2 AGG4ga gf_2/4ef  | g2g4c'2 b2a2 g2f2 e2 | \
w:  *  *  le ye *  lim   SAZ  |  *  Ol  ka deh  | 
f2 {a}gffe ede8-e2  | 
w:  kâr  *  *  *  gü *  ze *  li   | 
d2e6 e3d gfed c2 | d3cf2 edd4_2/4e2 f2g2  | \
w:  yâr   |  yâr  *  o la *  rak   | 
fedc B2c2 B2A2 G2A2 c2 | 
w:  pey  | 
B3AA2 AGG4|
w:  *  *  le ye *  lim    | 


